www/assets/icons/nat.svg

<svg xmlns="http://www.w3.org/2000/svg" width="24" height="24" viewBox="0 0 24 24" fill='currentColor'><path d="M6.82 13H11v-2H6.82C6.4 9.84 5.3 9 4 9c-1.66 0-3 1.34-3 3s1.34 3 3 3c1.3 0 2.4-.84 2.82-2M4 13c-.55 0-1-.45-1-1s.45-1 1-1 1 .45 1 1-.45 1-1 1"/><path d="m23 12-4-3v2h-4.05c-.5-5.05-4.76-9-9.95-9v2c4.42 0 8 3.58 8 8s-3.58 8-8 8v2c5.19 0 9.45-3.95 9.95-9H19v2z"/></svg>

<svg width="24" height="24" viewBox="0 0 24 24" xmlns="http://www.w3.org/2000/svg" fill='currentColor'><path d="M6.82 13H11V11H6.82C6.4 9.84 5.3 9 4 9C2.34 9 1 10.34 1 12C1 13.66 2.34 15 4 15C5.3 15 6.4 14.16 6.82 13ZM4 13C3.45 13 3 12.55 3 12C3 11.45 3.45 11 4 11C4.55 11 5 11.45 5 12C5 12.55 4.55 13 4 13Z"/><path d="M23 12L19 9V11H14.95C14.45 5.95 10.19 2 5 2V4C9.42 4 13 7.58 13 12C13 16.42 9.42 20 5 20V22C10.19 22 14.45 18.05 14.95 13H19V15L23 12Z"/></svg>
